svg/fluentui-system-icons/ic_fluent_design_ideas_20_filled.svg

<svg width="20" height="20" viewBox="0 0 20 20" fill="none" xmlns="http://www.w3.org/2000/svg">
<path d="M9 4.5C8.2513 4.5 7.5575 4.73509 6.9884 5.13547C6.95063 4.56207 6.81958 4.06548 6.57907 3.62413C7.29636 3.22644 8.12174 3 9 3C11.7614 3 14 5.23858 14 8H16.25C17.2165 8 18 8.7835 18 9.75V15.25C18 16.2165 17.2165 17 16.25 17H10.75C9.78351 17 9 16.2165 9 15.25V13C8.28132 13 7.59805 12.8484 6.98044 12.5754C6.99327 12.2357 7 11.8776 7 11.5L7.00001 11.4385C7.00006 11.2709 7.00011 11.079 6.99717 10.8707C7.56462 11.2673 8.25514 11.5 9 11.5V9.75C9 8.7835 9.78351 8 10.75 8H12.5C12.5 6.067 10.933 4.5 9 4.5ZM13.7711 9.5C13.2827 11.055 12.055 12.2827 10.5 12.7711V15.25C10.5 15.3881 10.6119 15.5 10.75 15.5H16.25C16.3881 15.5 16.5 15.3881 16.5 15.25V9.75C16.5 9.61193 16.3881 9.5 16.25 9.5H13.7711ZM12.1632 9.5H10.75C10.6119 9.5 10.5 9.61193 10.5 9.75V11.1632C11.2278 10.8174 11.8174 10.2278 12.1632 9.5ZM4.5809 2.12516C4.74705 2.27184 4.7964 2.50986 4.70381 2.7099C4.70296 2.71223 4.70137 2.71679 4.69951 2.7233C4.69403 2.74248 4.6875 2.77386 4.6875 2.8125C4.6875 2.87632 4.70345 2.99635 4.85355 3.14645C4.92656 3.21945 4.98277 3.27128 5.04402 3.32776C5.09369 3.37355 5.1467 3.42243 5.2147 3.48817C5.34326 3.61244 5.4813 3.75807 5.60353 3.9414C5.85878 4.32428 6 4.80266 6 5.5C6 6.35341 5.68386 7.07986 5.19132 7.52619C5.21305 7.55015 5.23421 7.57477 5.25477 7.6C5.53518 7.94407 5.69833 8.38978 5.79975 8.83013C6.00007 9.69992 6.00003 10.7457 6 11.4746L6 11.5C6 14.2873 5.62117 15.8681 5.20398 16.772C4.99389 17.2272 4.77136 17.5165 4.57769 17.6994C4.48105 17.7907 4.39315 17.854 4.3202 17.8974C4.28383 17.9191 4.25153 17.9356 4.22413 17.9481C4.21045 17.9543 4.19802 17.9595 4.18698 17.9638C4.18698 17.9638 4.07437 18 4 18C3.92563 18 3.81303 17.9638 3.81303 17.9638C3.80198 17.9595 3.78956 17.9543 3.77587 17.9481C3.74848 17.9356 3.71618 17.9191 3.67981 17.8974C3.60685 17.854 3.51895 17.7907 3.42232 17.6994C3.22865 17.5165 3.00612 17.2272 2.79602 16.772C2.37883 15.8681 2 14.2873 2 11.5V11.4746C1.99997 10.7457 1.99994 9.69992 2.20026 8.83013C2.30168 8.38978 2.46482 7.94407 2.74523 7.6C2.7658 7.57477 2.78695 7.55015 2.80869 7.52619C2.31614 7.07986 2 6.35341 2 5.5C2 5.17433 2.08733 4.78457 2.20709 4.42621C2.32741 4.06616 2.4953 3.6937 2.68863 3.39408C2.92008 3.00387 3.24542 2.67734 3.49671 2.45654C3.62622 2.34275 3.7425 2.25148 3.82717 2.18811C3.86961 2.15634 3.90443 2.13135 3.92936 2.11381L3.97265 2.08398C4.16129 1.95822 4.41094 1.97512 4.5809 2.12516Z" fill="#212121"/>
</svg>

<svg xmlns="http://www.w3.org/2000/svg" width="20" height="20"><path d="M9 4.5c-.749 0-1.442.235-2.012.635-.037-.573-.168-1.07-.409-1.51A5 5 0 0 1 14 8h2.251a1.75 1.75 0 0 1 1.75 1.749v5.5A1.75 1.75 0 0 1 16.25 17h-5.5A1.75 1.75 0 0 1 9 15.25V13a4.983 4.983 0 0 1-2.02-.425c.013-.34.02-.697.02-1.075v-.062c0-.167 0-.359-.003-.567A3.49 3.49 0 0 0 9 11.5V9.75C9 8.784 9.784 8 10.75 8h1.75A3.5 3.5 0 0 0 9 4.5Zm4.771 5a5.012 5.012 0 0 1-3.271 3.271v2.479c0 .138.112.25.25.25h5.5a.25.25 0 0 0 .25-.25v-5.5a.25.25 0 0 0-.25-.25h-2.479Zm-1.608 0H10.75a.25.25 0 0 0-.25.25v1.413A3.515 3.515 0 0 0 12.163 9.5ZM4.581 2.125a.5.5 0 0 1 .119.598.33.33 0 0 0-.013.09c0 .063.016.183.167.333.073.073.129.125.19.182.05.046.103.094.17.16.13.124.267.27.39.453.255.383.396.862.396 1.559 0 .853-.316 1.58-.809 2.026l.064.074c.28.344.443.79.545 1.23.2.87.2 1.916.2 2.645v.025c0 2.787-.379 4.368-.796 5.272-.21.455-.433.745-.626.927a1.48 1.48 0 0 1-.258.198.99.99 0 0 1-.133.067S4.074 18 4 18s-.187-.036-.187-.036a.748.748 0 0 1-.133-.067 1.48 1.48 0 0 1-.258-.198c-.193-.183-.416-.472-.626-.927C2.379 15.868 2 14.287 2 11.5v-.025c0-.73 0-1.775.2-2.645.102-.44.265-.886.545-1.23.02-.025.042-.05.064-.074C2.316 7.08 2 6.353 2 5.5c0-.326.087-.715.207-1.074.12-.36.288-.732.482-1.032.231-.39.556-.717.808-.937a5.487 5.487 0 0 1 .432-.343l.044-.03a.5.5 0 0 1 .608.041Z"/></svg>
